flaticon/army-badges/medal-40.svg

<svg xmlns="http://www.w3.org/2000/svg" width="32" height="32" viewBox="0 0 24 24">
    <path d="M14.480469 19.398438L15.519531 17.601562C15.601562 17.480469 15.601562 17.320312 15.519531 17.199219 15.441406 17.078125 15.320312 17 15.160156 17L13.398438 17 12.511719 15.847656 15.480469 12.878906C15.558594 12.800781 15.601562 12.71875 15.601562 12.601562L15.601562 1C15.601562.761719 15.441406.601562 15.199219.601562L8.800781.601562C8.558594.601562 8.398438.761719 8.398438 1L8.398438 12.601562C8.398438 12.71875 8.441406 12.839844 8.519531 12.878906L10.851562 15.210938C10.867188 15.242188 10.890625 15.265625 10.921875 15.28125L11.488281 15.847656 10.601562 17 8.839844 17C8.679688 17 8.558594 17.078125 8.480469 17.199219 8.398438 17.320312 8.398438 17.480469 8.480469 17.601562L9.519531 19.398438 8.441406 21.199219C8.359375 21.320312 8.359375 21.480469 8.441406 21.601562 8.519531 21.71875 8.640625 21.800781 8.800781 21.800781L10.601562 21.800781 11.679688 23.238281C11.761719 23.359375 11.878906 23.398438 12 23.398438 12.121094 23.398438 12.238281 23.359375 12.320312 23.238281L13.398438 21.800781 15.199219 21.800781C15.359375 21.800781 15.480469 21.71875 15.558594 21.601562 15.640625 21.480469 15.640625 21.320312 15.558594 21.199219zM14.800781 12.441406L13.199219 14.039062 13.199219 1.398438 14.800781 1.398438zM12.398438 1.398438L12.398438 14.839844 12 15.238281 11.601562 14.839844 11.601562 1.398438zM9.199219 1.398438L10.800781 1.398438 10.800781 14.039062 9.199219 12.441406zM13.199219 21C13.078125 21 12.960938 21.039062 12.878906 21.160156L12 22.320312 11.121094 21.160156C11.039062 21.039062 10.921875 21 10.800781 21L9.519531 21 10.359375 19.601562C10.441406 19.480469 10.441406 19.320312 10.359375 19.199219L9.558594 17.800781 10.800781 17.800781C10.921875 17.800781 11.039062 17.761719 11.121094 17.679688L12 16.519531 12.878906 17.640625C12.960938 17.761719 13.078125 17.800781 13.199219 17.800781L14.441406 17.800781 13.640625 19.199219C13.558594 19.320312 13.558594 19.480469 13.640625 19.601562L14.480469 21zM4.863281 15.496094L7.480469 12.878906C7.558594 12.800781 7.601562 12.71875 7.601562 12.601562L7.601562 3.398438C7.601562 3.160156 7.441406 3 7.199219 3L.800781 3C.558594 3 .398438 3.160156.398438 3.398438L.398438 12.601562C.398438 12.71875.441406 12.839844.519531 12.878906L2.851562 15.210938C2.867188 15.242188 2.890625 15.265625 2.921875 15.28125L3.136719 15.496094C1.347656 15.894531 0 17.496094 0 19.398438 0 21.601562 1.800781 23.398438 4 23.398438 6.199219 23.398438 8 21.601562 8 19.398438 8 17.496094 6.652344 15.894531 4.863281 15.496094zM6.800781 12.441406L5.199219 14.039062 5.199219 3.800781 6.800781 3.800781zM4.398438 3.800781L4.398438 14.839844 4 15.238281 3.601562 14.839844 3.601562 3.800781zM1.199219 3.800781L2.800781 3.800781 2.800781 14.039062 1.199219 12.441406zM4 22.601562C2.238281 22.601562.800781 21.160156.800781 19.398438.800781 17.640625 2.238281 16.199219 4 16.199219 5.761719 16.199219 7.199219 17.640625 7.199219 19.398438 7.199219 21.160156 5.761719 22.601562 4 22.601562zM4 22.601562"/>
    <path d="M4 16.601562C2.441406 16.601562 1.199219 17.839844 1.199219 19.398438 1.199219 19.640625 1.359375 19.800781 1.601562 19.800781 1.839844 19.800781 2 19.640625 2 19.398438 2 18.28125 2.878906 17.398438 4 17.398438 4.238281 17.398438 4.398438 17.238281 4.398438 17 4.398438 16.761719 4.238281 16.601562 4 16.601562zM23.839844 17.480469C23.71875 17.398438 23.601562 17.398438 23.480469 17.441406L21.101562 18.246094C21.089844 18.234375 21.078125 18.21875 21.066406 18.210938L21.839844 15.921875C21.878906 15.800781 21.878906 15.679688 21.800781 15.558594 21.71875 15.480469 21.601562 15.398438 21.480469 15.398438L20.960938 15.398438 23.480469 12.878906C23.558594 12.800781 23.601562 12.71875 23.601562 12.601562L23.601562 3.398438C23.601562 3.160156 23.441406 3 23.199219 3L16.800781 3C16.558594 3 16.398438 3.160156 16.398438 3.398438L16.398438 12.601562C16.398438 12.71875 16.441406 12.839844 16.519531 12.878906L18.851562 15.210938C18.867188 15.242188 18.890625 15.265625 18.921875 15.28125L19.039062 15.398438 18.480469 15.398438C18.359375 15.398438 18.238281 15.441406 18.160156 15.558594 18.078125 15.679688 18.078125 15.800781 18.121094 15.921875L18.90625 18.238281C18.871094 18.269531 18.839844 18.300781 18.808594 18.335938L16.519531 17.558594C16.398438 17.519531 16.28125 17.519531 16.160156 17.601562 16.078125 17.679688 16 17.800781 16 17.921875L16 20.921875C16 21.039062 16.039062 21.160156 16.160156 21.238281 16.238281 21.28125 16.320312 21.320312 16.398438 21.320312 16.441406 21.320312 16.480469 21.320312 16.519531 21.320312L18.867188 20.527344C18.886719 20.546875 18.910156 20.570312 18.933594 20.589844L18.160156 22.878906C18.121094 23 18.121094 23.121094 18.199219 23.238281 18.28125 23.320312 18.398438 23.398438 18.519531 23.398438L21.519531 23.398438C21.640625 23.398438 21.761719 23.359375 21.921875 23.238281 22 23.121094 22 23 21.960938 22.878906L21.15625 20.503906C21.15625 20.5 21.160156 20.5 21.164062 20.496094L23.480469 21.28125C23.519531 21.320312 23.558594 21.320312 23.601562 21.320312 23.679688 21.320312 23.761719 21.28125 23.839844 21.121094 23.917969 21.039062 24 20.921875 24 20.800781L24 17.800781C24 17.679688 23.960938 17.558594 23.839844 17.480469zM19.203125 19.484375C19.203125 19.480469 19.203125 19.480469 19.203125 19.480469 19.203125 19.453125 19.199219 19.425781 19.199219 19.398438 19.199219 19.382812 19.203125 19.363281 19.203125 19.34375 19.210938 19.234375 19.25 19.109375 19.320312 19.039062 19.351562 18.992188 19.371094 18.945312 19.378906 18.898438 19.421875 18.84375 19.46875 18.800781 19.523438 18.761719 19.546875 18.75 19.574219 18.738281 19.601562 18.71875 19.714844 18.640625 19.863281 18.601562 20.007812 18.601562 20.4375 18.605469 20.789062 18.953125 20.800781 19.386719 20.796875 19.535156 20.753906 19.6875 20.679688 19.800781 20.664062 19.824219 20.648438 19.851562 20.640625 19.878906 20.5 20.066406 20.273438 20.191406 20.023438 20.199219 19.886719 20.191406 19.75 20.152344 19.640625 20.078125 19.59375 20.046875 19.542969 20.03125 19.496094 20.019531 19.335938 19.890625 19.226562 19.699219 19.203125 19.484375zM22.800781 12.441406L21.199219 14.039062 21.199219 3.800781 22.800781 3.800781zM20.398438 3.800781L20.398438 14.839844 20 15.238281 19.601562 14.839844 19.601562 3.800781zM17.199219 3.800781L18.800781 3.800781 18.800781 14.039062 17.199219 12.441406zM19.640625 17.839844L19.078125 16.199219 20.960938 16.199219 20.398438 17.839844C20.28125 17.800781 20.121094 17.800781 20 17.800781 19.878906 17.800781 19.761719 17.8125 19.648438 17.839844 19.644531 17.839844 19.644531 17.839844 19.640625 17.839844zM18.441406 19.800781L16.800781 20.359375 16.800781 18.480469 18.441406 19C18.398438 19.121094 18.398438 19.238281 18.398438 19.398438 18.398438 19.558594 18.398438 19.679688 18.441406 19.800781zM19.039062 22.601562L19.601562 20.960938C19.878906 21.039062 20.160156 21.039062 20.398438 20.960938L20.921875 22.601562zM23.199219 20.359375L21.558594 19.800781C21.601562 19.679688 21.601562 19.558594 21.601562 19.398438 21.601562 19.28125 21.601562 19.121094 21.558594 19L23.199219 18.480469zM23.199219 20.359375"/>
</svg>

<svg xmlns="http://www.w3.org/2000/svg" width="32" height="32" viewBox="0 0 24 24">
    <path d="M14.48 19.398l1.04-1.796a.36.36 0 0 0 0-.403.413.413 0 0 0-.36-.199h-1.762l-.886-1.152 2.968-2.97a.366.366 0 0 0 .122-.276V1c0-.238-.16-.398-.403-.398H8.801c-.242 0-.403.16-.403.398v11.602c0 .117.043.238.122.277l2.332 2.332c.015.031.039.055.07.07l.566.567L10.602 17H8.84a.413.413 0 0 0-.36.2.36.36 0 0 0 0 .402l1.04 1.796L8.44 21.2a.36.36 0 0 0 0 .403c.079.117.2.199.36.199h1.8l1.079 1.437c.082.121.199.16.32.16s.238-.039.32-.16l1.078-1.437H15.2c.16 0 .281-.082.36-.2a.36.36 0 0 0 0-.402zm.32-6.957l-1.6 1.598V1.4h1.6zM12.399 1.398V14.84l-.398.398-.398-.398V1.398zm-3.199 0h1.602V14.04l-1.602-1.598zM13.2 21a.363.363 0 0 0-.32.16L12 22.32l-.879-1.16a.363.363 0 0 0-.32-.16H9.52l.84-1.398a.36.36 0 0 0 0-.403l-.801-1.398H10.8c.12 0 .238-.04.32-.121L12 16.52l.879 1.12c.082.122.2.16.32.16h1.242l-.8 1.4a.36.36 0 0 0 0 .402L14.48 21zm0 0M4.863 15.496L7.48 12.88a.366.366 0 0 0 .122-.277V3.398c0-.238-.16-.398-.403-.398H.801c-.242 0-.403.16-.403.398v9.204c0 .117.043.238.122.277l2.332 2.332c.015.031.039.055.07.07l.215.215c-1.79.399-3.137 2-3.137 3.902 0 2.204 1.8 4 4 4s4-1.796 4-4c0-1.902-1.348-3.503-3.137-3.902zm1.938-3.055L5.199 14.04V3.801h1.602zm-2.403-8.64V14.84L4 15.238l-.398-.398V3.8zM1.2 3.8h1.602v10.238l-1.602-1.598zM4 22.6a3.21 3.21 0 0 1-3.2-3.203C.8 17.641 2.239 16.2 4 16.2c1.762 0 3.2 1.442 3.2 3.2A3.21 3.21 0 0 1 4 22.601zm0 0"/>
    <path d="M4 16.602a2.783 2.783 0 0 0-2.8 2.796c0 .243.16.403.402.403.238 0 .398-.16.398-.403 0-1.117.879-2 2-2 .238 0 .398-.16.398-.398 0-.238-.16-.398-.398-.398zm0 0M23.84 17.48a.374.374 0 0 0-.36-.039l-2.378.805c-.012-.012-.024-.027-.036-.035l.774-2.29a.404.404 0 0 0-.04-.362c-.081-.079-.198-.16-.32-.16h-.52l2.52-2.52a.366.366 0 0 0 .122-.277V3.398c0-.238-.16-.398-.403-.398h-6.398c-.242 0-.403.16-.403.398v9.204c0 .117.043.238.122.277l2.332 2.332c.015.031.039.055.07.07l.117.117h-.559a.368.368 0 0 0-.32.16.381.381 0 0 0-.039.364l.785 2.316a1.152 1.152 0 0 0-.097.098l-2.29-.777a.385.385 0 0 0-.359.043c-.082.078-.16.199-.16.32v3c0 .117.04.238.16.316.078.043.16.082.238.082h.122l2.347-.793c.02.02.043.043.067.063l-.774 2.289a.394.394 0 0 0 .04.36c.081.081.198.16.32.16h3c.12 0 .242-.04.402-.16a.394.394 0 0 0 .039-.36l-.805-2.375c0-.004.004-.004.008-.008l2.316.785c.04.04.079.04.122.04.078 0 .16-.04.238-.2.078-.082.16-.2.16-.32v-3c0-.121-.04-.242-.16-.32zm-4.637 2.004v-.004c0-.027-.004-.054-.004-.082 0-.015.004-.035.004-.054a.504.504 0 0 1 .117-.305.36.36 0 0 0 .059-.14.684.684 0 0 1 .144-.137c.024-.012.051-.024.079-.043a.727.727 0 0 1 .406-.117c.43.003.781.351.793.785a.816.816 0 0 1-.121.414.293.293 0 0 0-.04.078.807.807 0 0 1-.617.32.764.764 0 0 1-.382-.12.45.45 0 0 0-.145-.06.8.8 0 0 1-.293-.535zm3.598-7.043l-1.602 1.598V3.801h1.602zm-2.403-8.64V14.84l-.398.398-.398-.398V3.8zm-3.199 0h1.602v10.238l-1.602-1.598zm2.442 14.039l-.563-1.64h1.883l-.563 1.64c-.117-.04-.277-.04-.398-.04s-.238.012-.352.04h-.007zm-1.2 1.96l-1.64.56v-1.88l1.64.52c-.043.121-.043.238-.043.398 0 .16 0 .282.043.403zm.598 2.802l.563-1.641c.277.078.558.078.796 0l.524 1.64zm4.16-2.243l-1.64-.558c.043-.121.043-.242.043-.403 0-.117 0-.277-.043-.398l1.64-.52zm0 0"/>
</svg>
